icons/folder-scripts-open.svg

<?xml version="1.0" encoding="UTF-8"?>
<svg clip-rule="evenodd" fill-rule="evenodd" stroke-linejoin="round" stroke-miterlimit="1.4142" version="1.1" viewBox="0 0 24 24" xml:space="preserve" xmlns="http://www.w3.org/2000/svg"><path d="m19 20h-15c-1.11 0-2-0.9-2-2v-12c0-1.11 0.89-2 2-2h6l2 2h7c1.097 0 2 0.903 2 2h-17v10l2.14-8h17.07l-2.28 8.5c-0.23 0.87-1.01 1.5-1.93 1.5z" fill="#546e7a" fill-rule="nonzero"/><g transform="matrix(.62922 0 0 .62922 9.657 7.657)" fill="#cfd8dc"><path d="m14 20c1.097 0 2-0.903 2-2v-13h-7c-0.549 0-1 0.451-1 1v10h-3v-11c0-1.646 1.354-3 3-3h11c1.646 0 3 1.354 3 3v1h-4v13c0 1.646-1.354 3-3 3h-10c-1.646 0-3-1.354-3-3v-1h10c0 1.097 0.903 2 2 2z" fill="#cfd8dc" fill-rule="nonzero"/></g></svg>

<?xml version="1.0" encoding="UTF-8" standalone="no"?>
<!DOCTYPE svg PUBLIC "-//W3C//DTD SVG 1.1//EN" "http://www.w3.org/Graphics/SVG/1.1/DTD/svg11.dtd">
<svg width="100%" height="100%" viewBox="0 0 24 24" version="1.1" xmlns="http://www.w3.org/2000/svg" xmlns:xlink="http://www.w3.org/1999/xlink" xml:space="preserve" style="fill-rule:evenodd;clip-rule:evenodd;stroke-linejoin:round;stroke-miterlimit:1.41421;">
    <path id="path2" d="M19,20L4,20C2.89,20 2,19.1 2,18L2,6C2,4.89 2.89,4 4,4L10,4L12,6L19,6C20.097,6 21,6.903 21,8L4,8L4,18L6.14,10L23.21,10L20.93,18.5C20.7,19.37 19.92,20 19,20Z" style="fill:rgb(66,66,66);fill-rule:nonzero;"/>
    <g transform="matrix(0.629225,0,0,0.629225,9.65704,7.65704)">
        <path d="M14,20C15.097,20 16,19.097 16,18L16,5L9,5C8.451,5 8,5.451 8,6L8,16L5,16L5,5C5,3.354 6.354,2 8,2L19,2C20.646,2 22,3.354 22,5L22,6L18,6L18,19C18,20.646 16.646,22 15,22L5,22C3.354,22 2,20.646 2,19L2,18L12,18C12,19.097 12.903,20 14,20Z" style="fill:rgb(189,189,189);fill-rule:nonzero;"/>
    </g>
</svg>
